//------------------------------------------------------------------------------
// テキスト音楽「サクラ」音楽データ (dSakura.dll Version.2.373)
//------------------------------------------------------------------------------
曲名{"006"}
作者{"H.Kobayashi"}
コメント{""}
//------------------------------------------------------------------------------
音源初期化
拍子4,4
テンポ(100)
調♭(be)          // B♭

トラック１
音量(120)//←ダブルクリックで変更できます
//ここから書きます。
Time(1:3:0)
o(6)l8q100 v70
r"ffe d^c"bf^^^ b^abd^^^ g^fedf"b^ "gdc"bc v60 "a"f"e 
< bfb`d`cf`fc bagb`dda"a e"begdf"bd egfed v70 "f"bd



Track 0 //Left hand
Time(2:1:0)
o(4)l8 q100 v60
"bfb`d Sub{"a2}`cafe Sub{"g2}dbag Sub{"d2}afd^
Sub{"e2}r"beg Sub{"b2}rfb`d Sub{c2}rg`e`c Sub{"f2}rcec

Track 2
Time(5:1:0)
o6 l8 q100音色(Oboe)
v70
r2 r"ffe
d^c"b f^^^ `d^`cbf^^^
g^fefdb^ g^a^b


