//------------------------------------------------------------------------------
// テキスト音楽「サクラ」音楽データ (dSakura.dll Version.2.373)
//------------------------------------------------------------------------------
曲名{""}
作者{"koba"}
コメント{""}
//------------------------------------------------------------------------------
音源初期化
拍子4,4
テンポ(60)
調♭(b)           // F

トラック１
音量(120)//←ダブルクリックで変更できます
Time(1:1:0)
q100
o5l8["acfc edc"b "acfc gec"b]
a2 b^ab `c2^4 `d`e `c2^4`d`e `c^^ba^g^

Track(2)
Time(1:1:0)q100
l8o4 Sub{"f2"b2}"fcfc "bfbf
Sub{"a2"c2}"af`cf "g"bec
l8o4 Sub{'"fc'2'"f"b'2}"fcfc "bfbf
Sub{'"ac'2'"c"g'2}"af`cf "g"bec

"fcac "gebe "af`cf "bf`df "af`cf "a-f`cf "gdbd "c"ge"g


 